public/curly-arrow.svg

<svg width="478" height="595" viewBox="0 0 478 595" fill="none" xmlns="http://www.w3.org/2000/svg">
<path d="M291.137 583.577C263.041 583.577 233.312 586.383 205.506 582.742C170.325 578.135 151.914 537.467 141.596 508.389C141.575 508.329 141.554 508.27 141.532 508.21M141.532 508.21C129.84 475.192 120.292 430.02 144.52 400.201C158.384 383.138 188.453 364.489 211.354 374.721C242.632 388.696 228.713 445.54 213.86 464.529C201.233 480.673 172.903 497.615 141.532 508.21ZM141.532 508.21C95.4988 523.756 42.9183 525.634 23.8007 491.263C-1.6126 445.573 12.3367 380.426 31.9461 336.082C66.6666 257.567 129.636 191.042 199.24 142.054C250.259 106.147 320.618 72.2962 385.123 72.2962M370.085 12.1455C392.121 12.1455 453.498 3.60483 465.324 28.0186C482.978 64.4662 403.19 126.942 381.363 147.485" stroke="black" stroke-width="20" stroke-linecap="round"/>
</svg>

<svg xmlns="http://www.w3.org/2000/svg" width="478" height="595" fill="none"><path stroke="#000" stroke-linecap="round" stroke-width="20" d="M291.137 583.577c-28.096 0-57.825 2.806-85.631-.835-35.181-4.607-53.592-45.275-63.91-74.353l-.064-.179m0 0c-11.692-33.018-21.24-78.19 2.988-108.009 13.864-17.063 43.933-35.712 66.834-25.48 31.278 13.975 17.359 70.819 2.506 89.808-12.627 16.144-40.957 33.086-72.328 43.681Zm0 0c-46.033 15.546-98.614 17.424-117.731-16.947-25.414-45.69-11.464-110.837 8.145-155.181 34.72-78.515 97.69-145.04 167.294-194.028 51.019-35.907 121.378-69.758 185.883-69.758m-15.038-60.15c22.036 0 83.413-8.541 95.239 15.873 17.654 36.447-62.134 98.923-83.961 119.466"/></svg>
